logo/renzo.svg

<svg fill="none" height="91" viewBox="0 0 91 91" width="91" xmlns="http://www.w3.org/2000/svg"><rect fill="#c4ff61" height="90.5455" rx="45.2727" width="90.5455"/><g fill="#000"><g opacity=".7"><path d="m46.3571 21.8936c1.5358-.0073 3.03.1454 4.4605.4354l-.1278 2.9303c-1.4305-.29-2.9247-.4427-4.4605-.4354z" fill-opacity=".7"/><path d="m50.8164 22.3291c1.1905.2341 2.3534.571 3.4546.9996l-.1278 2.9303c-1.1012-.4286-2.2641-.7655-3.4546-.9996z" fill-opacity=".7"/><path d="m44.1581 22.0068c.7305-.072 1.4595-.1097 2.1985-.1133l-.1278 2.9303c-.739.0036-1.468.0413-2.1985.1133z" fill-opacity=".7"/><path d="m54.2715 23.3291c.5679.2142 1.1228.4627 1.6656.7227l-.1278 2.9303c-.5428-.26-1.0977-.5085-1.6656-.7227z" fill-opacity=".7"/><path d="m55.9375 24.0518c1.0174.4974 1.974 1.0637 2.8815 1.6987l-.1278 2.9303c-.9075-.635-1.8641-1.2013-2.8815-1.6988z"/><path d="m30.7785 28.076c3.6202-3.3281 8.2776-5.5538 13.3799-6.0691l-.1278 2.9303c-5.1023.5153-9.7597 2.741-13.3799 6.0691z"/><path d="m50.1268 27.3216c-.1833-.0334-.3545-.0782-.5262-.1116l-.1278 2.9302c.1717.0335.3429.0783.5262.1117z" fill-opacity=".7"/><path d="m49.6002 27.21c-1.1217-.223-2.283-.3317-3.4493-.3261l-.1278 2.9303c1.1663-.0056 2.3276.1031 3.4493.326z" fill-opacity=".7"/><path d="m46.1504 26.8841c-4.4227.0211-8.6636 1.6968-11.9711 4.738l-.1278 2.9303c3.3075-3.0412 7.5484-4.7169 11.9711-4.738z" fill-opacity=".7"/><path d="m30.766 28.0877.0121-.0115-.1278 2.9305-.0121.0114z" fill-opacity=".7"/><path d="m65.7123 34.2118c-.4512-1.0367-.9963-2.0388-1.6137-2.9721l-.1278 2.9303c.6174.9333 1.1625 1.9353 1.6137 2.9721z"/><path d="m30.0431 28.7761.7227-.6884-.1277 2.9302-.7228.6885z"/><path d="m30.0307 28.7879.0121-.0115-.1278 2.9305-.0121.0114z" fill-opacity=".7"/><path d="m66.3557 35.8638c-.195-.5585-.4016-1.1169-.6438-1.6524l-.1278 2.9303c.2422.5354.4488 1.0939.6438 1.6524z"/><path d="m34.1795 31.6217-.0121.0114-.1278 2.9304.0121-.0114z" fill-opacity=".7"/><path d="m34.1672 31.6335-.6269.6081-.1278 2.9303.6269-.6081z" fill-opacity=".7"/><path d="m33.5408 32.2418-.0121.0114-.1278 2.9305.0121-.0115z" fill-opacity=".7"/><path d="m23.5157 41.8567c.67-5.038 3.0507-9.5932 6.5157-13.0691l-.1278 2.9303c-3.465 3.4759-5.8457 8.0311-6.5157 13.0691z" fill-opacity=".7"/><path d="m28.7483 47.8826 21.3777-20.5609-.1278 2.9302-21.3777 20.561z" fill-opacity=".7"/><path d="m33.528 32.2532c-3.1152 3.1317-4.9206 7.2047-5.1089 11.5211l-.1278 2.9303c.1883-4.3164 1.9938-8.3894 5.109-11.5211z" fill-opacity=".7"/><path d="m58.8188 25.7505-31.9214 30.6922-.1278 2.9303 31.9214-30.6923z" fill-opacity=".7"/><path d="m67.2674 45.6553c.0015-.0342.0151-.0799.0166-.1142l-.1278 2.9304c-.0015.0343-.0151.08-.0166.1143z" fill-opacity=".7"/><path d="m23.4485 42.4271c.0197-.1909.042-.3812.0673-.5704l-.1278 2.9303c-.0253.1892-.0476.3794-.0673.5703z" fill-opacity=".7"/><path d="m23.4115 42.818c.011-.1306.0231-.261.0365-.3911l-.1278 2.9303c-.0134.1301-.0255.2605-.0364.3911z" fill-opacity=".7"/><path d="m23.4052 42.91.0075-.0917-.1278 2.9305-.0075.0916z" fill-opacity=".7"/><path d="m23.3968 43.0138.0081-.1041-.1278 2.9304-.0081.1042z" fill-opacity=".7"/><path d="m23.3769 43.304c.0061-.0968.0128-.1936.0201-.2903l-.1278 2.9304c-.0073.0967-.014.1935-.0201.2904z"/><g fill-opacity=".7"><path d="m28.4199 43.7744c-.0021.0484-.004.0968-.0057.1452l-.1278 2.9304c.0017-.0484.0036-.0968.0057-.1452z"/><path d="m64.0983 31.2396-31.8135 30.6004-.1278 2.9303 31.8135-30.6004z"/><path d="m28.4141 43.9194c-.0017.0484-.0032.0968-.0044.1452l-.1278 2.9304c.0012-.0484.0027-.0968.0044-.1451z"/><path d="m23.3672 43.4617c.0029-.0524.006-.1048.0093-.1572l-.1278 2.9305c-.0033.0523-.0064.1047-.0093.1571z"/><path d="m28.4102 44.0645c-.0013.0502-.0024.1004-.0033.1505l-.1278 2.9305c.0009-.0502.002-.1004.0033-.1506z"/><path d="m23.3645 43.5221.0034-.0606-.1278 2.9304-.0034.0606z"/><path d="m23.3602 43.5936.0037-.0715-.1278 2.9304-.0037.0716z"/><path d="m23.3575 43.6598.0033-.066-.1278 2.9304-.0033.0661z"/><path d="m23.3504 43.7984c.002-.0462.0041-.0925.0064-.1387l-.1278 2.9304c-.0022.0463-.0044.0925-.0064.1387z"/><path d="m23.3431 43.9886c.0022-.0635.0047-.1271.0075-.1907l-.1278 2.9304c-.0028.0636-.0053.1272-.0075.1907z"/><path d="m23.338 44.1796c.0016-.0634.0035-.1268.0058-.1903l-.1278 2.9304c-.0023.0635-.0042.127-.0058.1903z"/><path d="m23.3355 44.2373.0014-.0581-.1278 2.9304-.0014.0581z"/><path d="m23.3332 44.3766c.0007-.0464.0017-.0928.0027-.1393l-.1278 2.9304c-.001.0465-.002.0929-.0027.1393z"/><path d="m28.4062 44.2148c-.0183 1.0856.0699 2.1665.2582 3.2114l-.1278 2.9303c-.1883-1.0449-.2765-2.1258-.2581-3.2114z"/><path d="m36.9033 64.2038 29.4521-28.3401-.1278 2.9303-29.4521 28.34z"/><path d="m23.6635 48.5345c-.2368-1.3374-.3547-2.7286-.3305-4.158l-.1278 2.9303c-.0242 1.4294.0937 2.8206.3305 4.1579z"/><path d="m28.6641 47.438.0845.4448-.1278 2.9303-.0845-.4448z"/></g><path d="m24.5675 51.8869c-.392-1.0713-.7007-2.2001-.9044-3.3522l-.1278 2.9303c.2037 1.1521.5124 2.2809.9044 3.3522z"/><path d="m67.2844 45.541-20.6303 19.8381-.1278 2.9303 20.6304-19.8381z" fill-opacity=".7"/><path d="m46.8626 65.3549c10.2538-1.0992 18.9918-9.2697 20.4049-19.7l-.1277 2.9303c-1.4132 10.4303-10.1512 18.6008-20.405 19.7z" fill-opacity=".7"/><path d="m25.2889 53.6305c-.2637-.5695-.5039-1.1507-.7205-1.7433l-.1278 2.9303c.2166.5926.4568 1.1737.7206 1.7433z"/><path d="m26.8982 56.4426c-.6078-.8876-1.1439-1.8326-1.6091-2.8122l-.1278 2.9303c.4652.9796 1.0013 1.9246 1.6091 2.8122z"/><path d="m32.2842 61.8394c.9642.6575 1.9781 1.2349 3.0421 1.7208l-.1278 2.9303c-1.064-.4859-2.0779-1.0633-3.0421-1.7209z" fill-opacity=".7"/><path d="m35.3271 63.5605c.5213.2259 1.0425.4517 1.5768.6433l-.1278 2.9303c-.5343-.1916-1.0555-.4174-1.5767-.6433z" fill-opacity=".7"/><path d="m46.654 65.3791c.0698-.0118.1391-.0121.2088-.0238l-.1277 2.9302c-.0698.0118-.1391.0121-.2089.0239z" fill-opacity=".7"/></g><path d="m67.2842 45.5412c-.0015.0343-.0151.08-.0166.1143-1.4131 10.4303-10.1511 18.6007-20.4049 19.7-.0698.0118-.1391.0121-.2089.0238z"/><path d="m55.9373 24.0519c-.5428-.26-1.0977-.5086-1.6656-.7228-1.1012-.4285-2.2641-.7655-3.4546-.9996-1.4305-.29-2.9247-.4427-4.4605-.4354-.739.0036-1.468.0413-2.1985.1133-5.1023.5153-9.7597 2.7409-13.3799 6.0691l-.012.0114c-.241.2295-.4819.459-.7228.6885l-.012.0115c-3.465 3.4758-5.8457 8.0311-6.5157 13.0691-.0253.1892-.0476.3794-.0673.5703-.0134.1301-.0255.2605-.0364.3911-.0026.0306-.0051.0611-.0075.0917-.0028.0347-.0055.0694-.0081.1041-.0073.0967-.0139.1935-.02.2904-.0033.0524-.0064.1048-.0094.1572-.0011.0202-.0022.0403-.0033.0605-.0013.0239-.0025.0478-.0038.0716-.0011.022-.0022.044-.0033.0661-.0022.0462-.0043.0924-.0064.1386-.0027.0637-.0052.1273-.0074.1908s-.0042.1269-.0058.1903c-.0005.0194-.001.0387-.0015.0581-.001.0465-.002.0929-.0028.1393-.0241 1.4294.0937 2.8206.3305 4.158.2038 1.1521.5124 2.2809.9044 3.3522.2166.5927.4568 1.1738.7206 1.7434.4653.9796 1.0013 1.9246 1.6091 2.8122l31.9214-30.6923c-.9074-.635-1.864-1.2013-2.8814-1.6987zm-27.1889 23.831c-.0282-.1483-.0563-.2966-.0845-.4449 0 0 0-.0007.0001-.0017 0-.0011.0001-.0025.0001-.004.0001-.0014.0002-.0028.0002-.0039.0001-.0011.0001-.0018.0001-.0018-.1883-1.0449-.2766-2.1258-.2582-3.2113.0009-.0502.002-.1004.0033-.1506.0012-.0484.0027-.0968.0044-.1451.0017-.0484.0036-.0968.0057-.1452.1882-4.3164 1.9937-8.3894 5.1089-11.5211l.012-.0115.6269-.608.0121-.0115c3.3075-3.0413 7.5483-4.7169 11.971-4.738 1.1663-.0056 2.3276.103 3.4493.326.1718.0334.343.0783.5262.1117z"/><path d="m36.9033 64.2042c-.5342-.1915-1.0555-.4173-1.5767-.6432-1.064-.4858-2.0779-1.0633-3.0421-1.7208l31.8135-30.6005c.6174.9333 1.1625 1.9353 1.6137 2.9721.2422.5355.4487 1.0939.6437 1.6524z"/></g></svg>

<svg width="91" height="91" viewBox="0 0 91 91" fill="none" xmlns="http://www.w3.org/2000/svg">
<rect width="90.5455" height="90.5455" rx="45.2727" fill="#C4FF61"/>
<g opacity="0.7">
<path d="M46.3571 21.8936C47.8929 21.8863 49.3871 22.039 50.8176 22.329L50.6898 25.2593C49.2593 24.9693 47.7651 24.8166 46.2293 24.8239L46.3571 21.8936Z" fill="black" fill-opacity="0.7"/>
<path d="M50.8164 22.3291C52.0069 22.5632 53.1698 22.9001 54.271 23.3287L54.1432 26.259C53.042 25.8304 51.8791 25.4935 50.6886 25.2594L50.8164 22.3291Z" fill="black" fill-opacity="0.7"/>
<path d="M44.1581 22.0068C44.8886 21.9348 45.6176 21.8971 46.3566 21.8935L46.2288 24.8238C45.4898 24.8274 44.7608 24.8651 44.0303 24.9371L44.1581 22.0068Z" fill="black" fill-opacity="0.7"/>
<path d="M54.2715 23.3291C54.8394 23.5433 55.3943 23.7918 55.9371 24.0518L55.8093 26.9821C55.2665 26.7221 54.7116 26.4736 54.1437 26.2594L54.2715 23.3291Z" fill="black" fill-opacity="0.7"/>
<path d="M55.9375 24.0518C56.9549 24.5492 57.9115 25.1155 58.819 25.7505L58.6912 28.6808C57.7837 28.0458 56.8271 27.4795 55.8097 26.982L55.9375 24.0518Z" fill="black"/>
<path d="M30.7785 28.076C34.3987 24.7479 39.0561 22.5222 44.1584 22.0069L44.0306 24.9372C38.9283 25.4525 34.2709 27.6782 30.6507 31.0063L30.7785 28.076Z" fill="black"/>
<path d="M50.1268 27.3216C49.9435 27.2882 49.7723 27.2434 49.6006 27.21L49.4728 30.1402C49.6445 30.1737 49.8157 30.2185 49.999 30.2519L50.1268 27.3216Z" fill="black" fill-opacity="0.7"/>
<path d="M49.6002 27.21C48.4785 26.987 47.3172 26.8783 46.1509 26.8839L46.0231 29.8142C47.1894 29.8086 48.3507 29.9173 49.4724 30.1402L49.6002 27.21Z" fill="black" fill-opacity="0.7"/>
<path d="M46.1504 26.8841C41.7277 26.9052 37.4868 28.5809 34.1793 31.6221L34.0515 34.5524C37.359 31.5112 41.5999 29.8355 46.0226 29.8144L46.1504 26.8841Z" fill="black" fill-opacity="0.7"/>
<path d="M30.766 28.0877L30.7781 28.0762L30.6503 31.0067L30.6382 31.0181L30.766 28.0877Z" fill="black" fill-opacity="0.7"/>
<path d="M65.7123 34.2118C65.2611 33.1751 64.716 32.173 64.0986 31.2397L63.9708 34.17C64.5882 35.1033 65.1333 36.1053 65.5845 37.1421L65.7123 34.2118Z" fill="black"/>
<path d="M30.0431 28.7761L30.7658 28.0877L30.6381 31.0179L29.9153 31.7064L30.0431 28.7761Z" fill="black"/>
<path d="M30.0307 28.7879L30.0428 28.7764L29.915 31.7069L29.9029 31.7183L30.0307 28.7879Z" fill="black" fill-opacity="0.7"/>
<path d="M66.3557 35.8638C66.1607 35.3053 65.9541 34.7469 65.7119 34.2114L65.5841 37.1417C65.8263 37.6771 66.0329 38.2356 66.2279 38.7941L66.3557 35.8638Z" fill="black"/>
<path d="M34.1795 31.6217L34.1674 31.6331L34.0396 34.5635L34.0517 34.5521L34.1795 31.6217Z" fill="black" fill-opacity="0.7"/>
<path d="M34.1672 31.6335L33.5403 32.2416L33.4125 35.1719L34.0394 34.5638L34.1672 31.6335Z" fill="black" fill-opacity="0.7"/>
<path d="M33.5408 32.2418L33.5287 32.2532L33.4009 35.1837L33.413 35.1722L33.5408 32.2418Z" fill="black" fill-opacity="0.7"/>
<path d="M23.5157 41.8567C24.1857 36.8187 26.5664 32.2635 30.0314 28.7876L29.9036 31.7179C26.4386 35.1938 24.0579 39.749 23.3879 44.787L23.5157 41.8567Z" fill="black" fill-opacity="0.7"/>
<path d="M28.7483 47.8826L50.126 27.3217L49.9982 30.2519L28.6205 50.8129L28.7483 47.8826Z" fill="black" fill-opacity="0.7"/>
<path d="M33.528 32.2532C30.4128 35.3849 28.6074 39.4579 28.4191 43.7743L28.2913 46.7046C28.4796 42.3882 30.2851 38.3152 33.4003 35.1835L33.528 32.2532Z" fill="black" fill-opacity="0.7"/>
<path d="M58.8188 25.7505L26.8974 56.4427L26.7696 59.373L58.691 28.6807L58.8188 25.7505Z" fill="black" fill-opacity="0.7"/>
<path d="M67.2674 45.6553C67.2689 45.6211 67.2825 45.5754 67.284 45.5411L67.1562 48.4715C67.1547 48.5058 67.1411 48.5515 67.1396 48.5858L67.2674 45.6553Z" fill="black" fill-opacity="0.7"/>
<path d="M23.4485 42.4271C23.4682 42.2362 23.4905 42.0459 23.5158 41.8567L23.388 44.787C23.3627 44.9762 23.3404 45.1664 23.3207 45.3573L23.4485 42.4271Z" fill="black" fill-opacity="0.7"/>
<path d="M23.4115 42.818C23.4225 42.6874 23.4346 42.557 23.448 42.4269L23.3202 45.3572C23.3068 45.4873 23.2947 45.6177 23.2838 45.7483L23.4115 42.818Z" fill="black" fill-opacity="0.7"/>
<path d="M23.4052 42.91L23.4127 42.8183L23.2849 45.7488L23.2774 45.8404L23.4052 42.91Z" fill="black" fill-opacity="0.7"/>
<path d="M23.3968 43.0138L23.4049 42.9097L23.2771 45.8401L23.269 45.9443L23.3968 43.0138Z" fill="black" fill-opacity="0.7"/>
<path d="M23.3769 43.304C23.383 43.2072 23.3897 43.1104 23.397 43.0137L23.2692 45.9441C23.2619 46.0408 23.2552 46.1376 23.2491 46.2345L23.3769 43.304Z" fill="black"/>
<path d="M28.4199 43.7744C28.4178 43.8228 28.4159 43.8712 28.4142 43.9196L28.2864 46.85C28.2881 46.8016 28.29 46.7532 28.2921 46.7048L28.4199 43.7744Z" fill="black" fill-opacity="0.7"/>
<path d="M64.0983 31.2396L32.2848 61.84L32.157 64.7703L63.9705 34.1699L64.0983 31.2396Z" fill="black" fill-opacity="0.7"/>
<path d="M28.4141 43.9194C28.4124 43.9678 28.4109 44.0162 28.4097 44.0646L28.2819 46.995C28.2831 46.9466 28.2846 46.8982 28.2863 46.8499L28.4141 43.9194Z" fill="black" fill-opacity="0.7"/>
<path d="M23.3672 43.4617C23.3701 43.4093 23.3732 43.3569 23.3765 43.3045L23.2487 46.235C23.2454 46.2873 23.2423 46.3397 23.2394 46.3921L23.3672 43.4617Z" fill="black" fill-opacity="0.7"/>
<path d="M28.4102 44.0645C28.4089 44.1147 28.4078 44.1649 28.4069 44.215L28.2791 47.1455C28.28 47.0953 28.2811 47.0451 28.2824 46.9949L28.4102 44.0645Z" fill="black" fill-opacity="0.7"/>
<path d="M23.3645 43.5221L23.3679 43.4615L23.2401 46.3919L23.2367 46.4525L23.3645 43.5221Z" fill="black" fill-opacity="0.7"/>
<path d="M23.3602 43.5936L23.3639 43.5221L23.2361 46.4525L23.2324 46.5241L23.3602 43.5936Z" fill="black" fill-opacity="0.7"/>
<path d="M23.3575 43.6598L23.3608 43.5938L23.233 46.5242L23.2297 46.5903L23.3575 43.6598Z" fill="black" fill-opacity="0.7"/>
<path d="M23.3504 43.7984C23.3524 43.7522 23.3545 43.7059 23.3568 43.6597L23.229 46.5901C23.2268 46.6364 23.2246 46.6826 23.2226 46.7288L23.3504 43.7984Z" fill="black" fill-opacity="0.7"/>
<path d="M23.3431 43.9886C23.3453 43.9251 23.3478 43.8615 23.3506 43.7979L23.2228 46.7283C23.22 46.7919 23.2175 46.8555 23.2153 46.919L23.3431 43.9886Z" fill="black" fill-opacity="0.7"/>
<path d="M23.338 44.1796C23.3396 44.1162 23.3415 44.0528 23.3438 43.9893L23.216 46.9197C23.2137 46.9832 23.2118 47.0467 23.2102 47.11L23.338 44.1796Z" fill="black" fill-opacity="0.7"/>
<path d="M23.3355 44.2373L23.3369 44.1792L23.2091 47.1096L23.2077 47.1677L23.3355 44.2373Z" fill="black" fill-opacity="0.7"/>
<path d="M23.3332 44.3766C23.3339 44.3302 23.3349 44.2838 23.3359 44.2373L23.2081 47.1677C23.2071 47.2142 23.2061 47.2606 23.2054 47.307L23.3332 44.3766Z" fill="black" fill-opacity="0.7"/>
<path d="M28.4062 44.2148C28.3879 45.3004 28.4761 46.3813 28.6644 47.4262L28.5366 50.3565C28.3483 49.3116 28.2601 48.2307 28.2785 47.1451L28.4062 44.2148Z" fill="black" fill-opacity="0.7"/>
<path d="M36.9033 64.2038L66.3554 35.8637L66.2276 38.794L36.7755 67.134L36.9033 64.2038Z" fill="black" fill-opacity="0.7"/>
<path d="M23.6635 48.5345C23.4267 47.1971 23.3088 45.8059 23.333 44.3765L23.2052 47.3068C23.181 48.7362 23.2989 50.1274 23.5357 51.4647L23.6635 48.5345Z" fill="black" fill-opacity="0.7"/>
<path d="M28.6641 47.438L28.7486 47.8828L28.6208 50.8131L28.5363 50.3683L28.6641 47.438Z" fill="black" fill-opacity="0.7"/>
<path d="M24.5675 51.8869C24.1755 50.8156 23.8668 49.6868 23.6631 48.5347L23.5353 51.465C23.739 52.6171 24.0477 53.7459 24.4397 54.8172L24.5675 51.8869Z" fill="black"/>
<path d="M67.2844 45.541L46.6541 65.3791L46.5263 68.3094L67.1567 48.4713L67.2844 45.541Z" fill="black" fill-opacity="0.7"/>
<path d="M46.8626 65.3549C57.1164 64.2557 65.8544 56.0852 67.2675 45.6549L67.1398 48.5852C65.7266 59.0155 56.9886 67.186 46.7348 68.2852L46.8626 65.3549Z" fill="black" fill-opacity="0.7"/>
<path d="M25.2889 53.6305C25.0252 53.061 24.785 52.4798 24.5684 51.8872L24.4406 54.8175C24.6572 55.4101 24.8974 55.9912 25.1612 56.5608L25.2889 53.6305Z" fill="black"/>
<path d="M26.8982 56.4426C26.2904 55.555 25.7543 54.61 25.2891 53.6304L25.1613 56.5607C25.6265 57.5403 26.1626 58.4853 26.7704 59.3729L26.8982 56.4426Z" fill="black"/>
<path d="M32.2842 61.8394C33.2484 62.4969 34.2623 63.0743 35.3263 63.5602L35.1985 66.4905C34.1345 66.0046 33.1206 65.4272 32.1564 64.7696L32.2842 61.8394Z" fill="black" fill-opacity="0.7"/>
<path d="M35.3271 63.5605C35.8484 63.7864 36.3696 64.0122 36.9039 64.2038L36.7761 67.1341C36.2418 66.9425 35.7206 66.7167 35.1994 66.4908L35.3271 63.5605Z" fill="black" fill-opacity="0.7"/>
<path d="M46.654 65.3791C46.7238 65.3673 46.7931 65.367 46.8628 65.3553L46.7351 68.2855C46.6653 68.2973 46.596 68.2976 46.5262 68.3094L46.654 65.3791Z" fill="black" fill-opacity="0.7"/>
</g>
<path d="M67.2842 45.5412C67.2827 45.5755 67.2691 45.6212 67.2676 45.6555C65.8545 56.0858 57.1165 64.2562 46.8627 65.3555C46.7929 65.3673 46.7236 65.3676 46.6538 65.3793L67.2842 45.5412Z" fill="black"/>
<path d="M55.9373 24.0519C55.3945 23.7919 54.8396 23.5433 54.2717 23.3291C53.1705 22.9006 52.0076 22.5636 50.8171 22.3295C49.3866 22.0395 47.8924 21.8868 46.3566 21.8941C45.6176 21.8977 44.8886 21.9354 44.1581 22.0074C39.0558 22.5227 34.3984 24.7483 30.7782 28.0765L30.7662 28.0879C30.5252 28.3174 30.2843 28.5469 30.0434 28.7764L30.0314 28.7879C26.5664 32.2637 24.1857 36.819 23.5157 41.857C23.4904 42.0462 23.4681 42.2364 23.4484 42.4273C23.435 42.5574 23.4229 42.6878 23.412 42.8184C23.4094 42.849 23.4069 42.8795 23.4045 42.9101C23.4017 42.9448 23.399 42.9795 23.3964 43.0142C23.3891 43.1109 23.3825 43.2077 23.3764 43.3046C23.3731 43.357 23.37 43.4094 23.367 43.4618C23.3659 43.482 23.3648 43.5021 23.3637 43.5223C23.3624 43.5462 23.3612 43.5701 23.3599 43.5939C23.3588 43.6159 23.3577 43.6379 23.3566 43.66C23.3544 43.7062 23.3523 43.7524 23.3502 43.7986C23.3475 43.8623 23.345 43.9259 23.3428 43.9894C23.3406 44.0529 23.3386 44.1163 23.337 44.1797C23.3365 44.1991 23.336 44.2184 23.3355 44.2378C23.3345 44.2843 23.3335 44.3307 23.3327 44.3771C23.3086 45.8065 23.4264 47.1977 23.6632 48.5351C23.867 49.6872 24.1756 50.816 24.5676 51.8873C24.7842 52.48 25.0244 53.0611 25.2882 53.6307C25.7535 54.6103 26.2895 55.5553 26.8973 56.4429L58.8187 25.7506C57.9113 25.1156 56.9547 24.5493 55.9373 24.0519ZM28.7484 47.8829C28.7202 47.7346 28.6921 47.5863 28.6639 47.438C28.6639 47.438 28.6639 47.4373 28.664 47.4363C28.664 47.4352 28.6641 47.4338 28.6641 47.4323C28.6642 47.4309 28.6643 47.4295 28.6643 47.4284C28.6644 47.4273 28.6644 47.4266 28.6644 47.4266C28.4761 46.3817 28.3878 45.3008 28.4062 44.2153C28.4071 44.1651 28.4082 44.1149 28.4095 44.0647C28.4107 44.0163 28.4122 43.9679 28.4139 43.9196C28.4156 43.8712 28.4175 43.8228 28.4196 43.7744C28.6078 39.458 30.4133 35.385 33.5285 32.2533L33.5405 32.2418L34.1674 31.6338L34.1795 31.6223C37.487 28.581 41.7278 26.9054 46.1505 26.8843C47.3168 26.8787 48.4781 26.9873 49.5998 27.2103C49.7716 27.2437 49.9428 27.2886 50.126 27.322L28.7484 47.8829Z" fill="black"/>
<path d="M36.9033 64.2042C36.3691 64.0127 35.8478 63.7869 35.3266 63.561C34.2626 63.0752 33.2487 62.4977 32.2845 61.8402L64.098 31.2397C64.7154 32.173 65.2605 33.175 65.7117 34.2118C65.9539 34.7473 66.1604 35.3057 66.3554 35.8642L36.9033 64.2042Z" fill="black"/>
</svg>
